;FLAVOR:Marlin
;Layer height: 0.20
M82 ;absolute extrusion mode
G21 ;metric values
G90 ;absolute positioning
M107 ;Fan off
M140 S70 ;set bed temp
M190 S70 ;wait for bed temp
M104 S190 ;set extruder0 temp
M109 S190 ;wait for extruder0 temp
G28 X0 Y0 ;auto-home all axes
G28 Z0 ;auto-home all axes
G1 Z15 F6000 ;raise extruder
G92 E0 ;Zero extruder
M117 Printing...
;LAYER_COUNT:100
;LAYER:0
( Nozzle 0 )
G1 Z0.20 F300
G0 X5.62 Y10.00 F6000
G1 E3.000 F1800
G1 X5.62 Y20.00 E4.429 F3600
G1 E1.429 F1800
G0 X109.25 Y109.25 F6000
G1 E4.429 F1800
G1 X90.75 Y109.25 E7.071 F3600
G1 X90.75 Y90.75 E9.714 F3600
G1 X109.25 Y90.75 E12.357 F3600
G1 X109.25 Y109.25 E15.000 F3600
G1 E12.000 F1800
G0 X109.75 Y109.75 F6000
G1 E15.000 F1800
G1 X90.25 Y109.75 E17.786 F3600
G1 X90.25 Y90.25 E20.571 F3600
G1 X109.75 Y90.25 E23.357 F3600
G1 X109.75 Y109.75 E26.143 F3600
G1 E23.143 F1800
G0 X91.22 Y108.90 F6000
G1 E26.143 F1800
G1 X91.10 Y108.78 E26.168 F3600
G1 X91.10 Y108.07 E26.269 F3600
G1 X91.93 Y108.90 E26.436 F3600
G1 X92.64 Y108.90 E26.537 F3600
G1 X91.10 Y107.36 E26.848 F3600
G1 X91.10 Y106.66 E26.949 F3600
G1 X93.34 Y108.90 E27.402 F3600
G1 X94.05 Y108.90 E27.503 F3600
G1 X91.10 Y105.95 E28.099 F3600
G1 X91.10 Y105.24 E28.200 F3600
G1 X94.76 Y108.90 E28.939 F3600
G1 X95.47 Y108.90 E29.040 F3600
G1 X91.10 Y104.53 E29.922 F3600
G1 X91.10 Y103.83 E30.023 F3600
G1 X96.17 Y108.90 E31.048 F3600
G1 X96.88 Y108.90 E31.149 F3600
G1 X91.10 Y103.12 E32.316 F3600
G1 X91.10 Y102.41 E32.417 F3600
G1 X97.59 Y108.90 E33.728 F3600
G1 X98.29 Y108.90 E33.829 F3600
G1 X91.10 Y101.71 E35.282 F3600
G1 X91.10 Y101.00 E35.383 F3600
G1 X99.00 Y108.90 E36.979 F3600
G1 X99.71 Y108.90 E37.080 F3600
G1 X91.10 Y100.29 E38.819 F3600
G1 X91.10 Y99.59 E38.920 F3600
G1 X100.41 Y108.90 E40.802 F3600
G1 X101.12 Y108.90 E40.903 F3600
G1 X91.10 Y98.88 E42.928 F3600
G1 X91.10 Y98.17 E43.029 F3600
G1 X101.83 Y108.90 E45.196 F3600
G1 X102.54 Y108.90 E45.297 F3600
G1 X91.10 Y97.46 E47.608 F3600
G1 X91.10 Y96.76 E47.709 F3600
G1 X103.24 Y108.90 E50.162 F3600
G1 X103.95 Y108.90 E50.263 F3600
G1 X91.10 Y96.05 E52.859 F3600
G1 X91.10 Y95.34 E52.960 F3600
G1 X104.66 Y108.90 E55.699 F3600
G1 X105.36 Y108.90 E55.800 F3600
G1 X91.10 Y94.64 E58.682 F3600
G1 X91.10 Y93.93 E58.783 F3600
G1 X106.07 Y108.90 E61.808 F3600
G1 X106.78 Y108.90 E61.909 F3600
G1 X91.10 Y93.22 E65.076 F3600
G1 X91.10 Y92.51 E65.177 F3600
G1 X107.49 Y108.90 E68.488 F3600
G1 X108.19 Y108.90 E68.589 F3600
G1 X91.10 Y91.81 E72.042 F3600
G1 X91.10 Y91.10 E72.143 F3600
G1 X108.90 Y108.90 E75.739 F3600
G1 X108.90 Y108.19 E75.840 F3600
G1 X91.81 Y91.10 E79.293 F3600
G1 X92.51 Y91.10 E79.394 F3600
G1 X108.90 Y107.49 E82.705 F3600
G1 X108.90 Y106.78 E82.806 F3600
G1 X93.22 Y91.10 E85.973 F3600
G1 X93.93 Y91.10 E86.074 F3600
G1 X108.90 Y106.07 E89.099 F3600
G1 X108.90 Y105.36 E89.200 F3600
G1 X94.64 Y91.10 E92.082 F3600
G1 X95.34 Y91.10 E92.183 F3600
G1 X108.90 Y104.66 E94.922 F3600
G1 X108.90 Y103.95 E95.023 F3600
G1 X96.05 Y91.10 E97.619 F3600
G1 X96.76 Y91.10 E97.720 F3600
G1 X108.90 Y103.24 E100.173 F3600
G1 X108.90 Y102.54 E100.275 F3600
G1 X97.46 Y91.10 E102.585 F3600
G1 X98.17 Y91.10 E102.686 F3600
G1 X108.90 Y101.83 E104.854 F3600
G1 X108.90 Y101.12 E104.954 F3600
G1 X98.88 Y91.10 E106.979 F3600
G1 X99.59 Y91.10 E107.080 F3600
G1 X108.90 Y100.41 E108.962 F3600
G1 X108.90 Y99.71 E109.063 F3600
G1 X100.29 Y91.10 E110.802 F3600
G1 X101.00 Y91.10 E110.903 F3600
G1 X108.90 Y99.00 E112.499 F3600
G1 X108.90 Y98.29 E112.600 F3600
G1 X101.71 Y91.10 E114.053 F3600
G1 X102.41 Y91.10 E114.155 F3600
G1 X108.90 Y97.59 E115.465 F3600
G1 X108.90 Y96.88 E115.566 F3600
G1 X103.12 Y91.10 E116.733 F3600
G1 X103.83 Y91.10 E116.835 F3600
G1 X108.90 Y96.17 E117.859 F3600
G1 X108.90 Y95.47 E117.960 F3600
G1 X104.53 Y91.10 E118.842 F3600
G1 X105.24 Y91.10 E118.943 F3600
G1 X108.90 Y94.76 E119.682 F3600
G1 X108.90 Y94.05 E119.783 F3600
G1 X105.95 Y91.10 E120.379 F3600
G1 X106.66 Y91.10 E120.480 F3600
G1 X108.90 Y93.34 E120.934 F3600
G1 X108.90 Y92.64 E121.035 F3600
G1 X107.36 Y91.10 E121.345 F3600
G1 X108.07 Y91.10 E121.446 F3600
G1 X108.90 Y91.93 E121.614 F3600
G1 X108.90 Y91.22 E121.715 F3600
G1 X108.78 Y91.10 E121.739 F3600
G1 E118.739 F1800
;LAYER:1
( Nozzle 0 )
G1 Z0.40 F300
G0 X90.75 Y90.75 F6000
G1 E121.739 F1800
G1 X109.25 Y90.75 E124.382 F3600
G1 X109.25 Y109.25 E127.025 F3600
G1 X90.75 Y109.25 E129.668 F3600
G1 X90.75 Y90.75 E132.311 F3600
G1 E129.311 F1800
G0 X90.25 Y90.25 F6000
G1 E132.311 F1800
G1 X109.75 Y90.25 E135.096 F3600
G1 X109.75 Y109.75 E137.882 F3600
G1 X90.25 Y109.75 E140.668 F3600
G1 X90.25 Y90.25 E143.454 F3600
G1 E140.454 F1800
G0 X108.90 Y108.78 F6000
G1 E143.454 F1800
G1 X108.78 Y108.90 E143.478 F3600
G1 X108.07 Y108.90 E143.580 F3600
G1 X108.90 Y108.07 E143.748 F3600
G1 X108.90 Y107.36 E143.848 F3600
G1 X107.36 Y108.90 E144.159 F3600
G1 X106.66 Y108.90 E144.260 F3600
G1 X108.90 Y106.66 E144.714 F3600
G1 X108.90 Y105.95 E144.814 F3600
G1 X105.95 Y108.90 E145.411 F3600
G1 X105.24 Y108.90 E145.512 F3600
G1 X108.90 Y105.24 E146.251 F3600
G1 X108.90 Y104.53 E146.352 F3600
G1 X104.53 Y108.90 E147.234 F3600
G1 X103.83 Y108.90 E147.335 F3600
G1 X108.90 Y103.83 E148.360 F3600
G1 X108.90 Y103.12 E148.461 F3600
G1 X103.12 Y108.90 E149.629 F3600
G1 X102.41 Y108.90 E149.730 F3600
G1 X108.90 Y102.41 E151.040 F3600
G1 X108.90 Y101.70 E151.142 F3600
G1 X101.70 Y108.90 E152.595 F3600
G1 X101.00 Y108.90 E152.696 F3600
G1 X108.90 Y101.00 E154.292 F3600
G1 X108.90 Y100.29 E154.393 F3600
G1 X100.29 Y108.90 E156.133 F3600
G1 X99.58 Y108.90 E156.234 F3600
G1 X108.90 Y99.58 E158.116 F3600
G1 X108.90 Y98.88 E158.217 F3600
G1 X98.88 Y108.90 E160.242 F3600
G1 X98.17 Y108.90 E160.342 F3600
G1 X108.90 Y98.17 E162.510 F3600
G1 X108.90 Y97.46 E162.611 F3600
G1 X97.46 Y108.90 E164.922 F3600
G1 X96.75 Y108.90 E165.023 F3600
G1 X108.90 Y96.75 E167.477 F3600
G1 X108.90 Y96.05 E167.577 F3600
G1 X96.05 Y108.90 E170.174 F3600
G1 X95.34 Y108.90 E170.275 F3600
G1 X108.90 Y95.34 E173.014 F3600
G1 X108.90 Y94.64 E173.115 F3600
G1 X94.64 Y108.90 E175.997 F3600
G1 X93.93 Y108.90 E176.098 F3600
G1 X108.90 Y93.93 E179.123 F3600
G1 X108.90 Y93.22 E179.224 F3600
G1 X93.22 Y108.90 E182.392 F3600
G1 X92.51 Y108.90 E182.493 F3600
G1 X108.90 Y92.51 E185.804 F3600
G1 X108.90 Y91.81 E185.904 F3600
G1 X91.81 Y108.90 E189.358 F3600
G1 X91.10 Y108.90 E189.459 F3600
G1 X108.90 Y91.10 E193.055 F3600
G1 X108.19 Y91.10 E193.156 F3600
G1 X91.10 Y108.19 E196.609 F3600
G1 X91.10 Y107.48 E196.710 F3600
G1 X107.48 Y91.10 E200.020 F3600
G1 X106.78 Y91.10 E200.121 F3600
G1 X91.10 Y106.78 E203.288 F3600
G1 X91.10 Y106.07 E203.389 F3600
G1 X106.07 Y91.10 E206.414 F3600
G1 X105.36 Y91.10 E206.515 F3600
G1 X91.10 Y105.36 E209.396 F3600
G1 X91.10 Y104.66 E209.497 F3600
G1 X104.66 Y91.10 E212.236 F3600
G1 X103.95 Y91.10 E212.337 F3600
G1 X91.10 Y103.95 E214.933 F3600
G1 X91.10 Y103.24 E215.034 F3600
G1 X103.24 Y91.10 E217.487 F3600
G1 X102.53 Y91.10 E217.588 F3600
G1 X91.10 Y102.53 E219.899 F3600
G1 X91.10 Y101.83 E220.000 F3600
G1 X101.83 Y91.10 E222.167 F3600
G1 X101.12 Y91.10 E222.268 F3600
G1 X91.10 Y101.12 E224.292 F3600
G1 X91.10 Y100.41 E224.394 F3600
G1 X100.41 Y91.10 E226.275 F3600
G1 X99.71 Y91.10 E226.376 F3600
G1 X91.10 Y99.71 E228.115 F3600
G1 X91.10 Y99.00 E228.216 F3600
G1 X99.00 Y91.10 E229.812 F3600
G1 X98.29 Y91.10 E229.913 F3600
G1 X91.10 Y98.29 E231.366 F3600
G1 X91.10 Y97.58 E231.467 F3600
G1 X97.58 Y91.10 E232.777 F3600
G1 X96.88 Y91.10 E232.878 F3600
G1 X91.10 Y96.88 E234.046 F3600
G1 X91.10 Y96.17 E234.147 F3600
G1 X96.17 Y91.10 E235.171 F3600
G1 X95.46 Y91.10 E235.272 F3600
G1 X91.10 Y95.46 E236.154 F3600
G1 X91.10 Y94.76 E236.255 F3600
G1 X94.76 Y91.10 E236.994 F3600
G1 X94.05 Y91.10 E237.095 F3600
G1 X91.10 Y94.05 E237.691 F3600
G1 X91.10 Y93.34 E237.791 F3600
G1 X93.34 Y91.10 E238.245 F3600
G1 X92.64 Y91.10 E238.346 F3600
G1 X91.10 Y92.64 E238.656 F3600
G1 X91.10 Y91.93 E238.757 F3600
G1 X91.93 Y91.10 E238.924 F3600
G1 X91.22 Y91.10 E239.025 F3600
G1 X91.10 Y91.22 E239.050 F3600
G1 E236.050 F1800
;LAYER:2
( Nozzle 0 )
G1 Z0.60 F300
G0 X109.25 Y90.75 F6000
G1 E239.050 F1800
G1 X109.25 Y109.25 E241.693 F3600
G1 X90.75 Y109.25 E244.335 F3600
G1 X90.75 Y90.75 E246.978 F3600
G1 X109.25 Y90.75 E249.621 F3600
G1 E246.621 F1800
G0 X109.75 Y90.25 F6000
G1 E249.621 F1800
G1 X109.75 Y109.75 E252.407 F3600
G1 X90.25 Y109.75 E255.193 F3600
G1 X90.25 Y90.25 E257.978 F3600
G1 X109.75 Y90.25 E260.764 F3600
G1 E257.764 F1800
G0 X91.22 Y108.90 F6000
G1 E260.764 F1800
G1 X91.10 Y108.78 E260.789 F3600
G1 X91.10 Y108.07 E260.890 F3600
G1 X91.93 Y108.90 E261.058 F3600
G1 X92.64 Y108.90 E261.158 F3600
G1 X91.10 Y107.36 E261.469 F3600
G1 X91.10 Y106.66 E261.570 F3600
G1 X93.34 Y108.90 E262.023 F3600
G1 X94.05 Y108.90 E262.124 F3600
G1 X91.10 Y105.95 E262.720 F3600
G1 X91.10 Y105.24 E262.821 F3600
G1 X94.76 Y108.90 E263.560 F3600
G1 X95.47 Y108.90 E263.661 F3600
G1 X91.10 Y104.53 E264.543 F3600
G1 X91.10 Y103.83 E264.644 F3600
G1 X96.17 Y108.90 E265.669 F3600
G1 X96.88 Y108.90 E265.770 F3600
G1 X91.10 Y103.12 E266.938 F3600
G1 X91.10 Y102.41 E267.039 F3600
G1 X97.59 Y108.90 E268.349 F3600
G1 X98.29 Y108.90 E268.450 F3600
G1 X91.10 Y101.71 E269.903 F3600
G1 X91.10 Y101.00 E270.004 F3600
G1 X99.00 Y108.90 E271.600 F3600
G1 X99.71 Y108.90 E271.701 F3600
G1 X91.10 Y100.29 E273.441 F3600
G1 X91.10 Y99.59 E273.541 F3600
G1 X100.41 Y108.90 E275.423 F3600
G1 X101.12 Y108.90 E275.524 F3600
G1 X91.10 Y98.88 E277.549 F3600
G1 X91.10 Y98.17 E277.650 F3600
G1 X101.83 Y108.90 E279.817 F3600
G1 X102.54 Y108.90 E279.918 F3600
G1 X91.10 Y97.46 E282.229 F3600
G1 X91.10 Y96.76 E282.330 F3600
G1 X103.24 Y108.90 E284.783 F3600
G1 X103.95 Y108.90 E284.884 F3600
G1 X91.10 Y96.05 E287.480 F3600
G1 X91.10 Y95.34 E287.582 F3600
G1 X104.66 Y108.90 E290.321 F3600
G1 X105.36 Y108.90 E290.422 F3600
G1 X91.10 Y94.64 E293.303 F3600
G1 X91.10 Y93.93 E293.404 F3600
G1 X106.07 Y108.90 E296.429 F3600
G1 X106.78 Y108.90 E296.530 F3600
G1 X91.10 Y93.22 E299.698 F3600
G1 X91.10 Y92.51 E299.799 F3600
G1 X107.49 Y108.90 E303.109 F3600
G1 X108.19 Y108.90 E303.210 F3600
G1 X91.10 Y91.81 E306.663 F3600
G1 X91.10 Y91.10 E306.764 F3600
G1 X108.90 Y108.90 E310.360 F3600
G1 X108.90 Y108.19 E310.462 F3600
G1 X91.81 Y91.10 E313.915 F3600
G1 X92.51 Y91.10 E314.015 F3600
G1 X108.90 Y107.49 E317.326 F3600
G1 X108.90 Y106.78 E317.427 F3600
G1 X93.22 Y91.10 E320.595 F3600
G1 X93.93 Y91.10 E320.695 F3600
G1 X108.90 Y106.07 E323.720 F3600
G1 X108.90 Y105.36 E323.821 F3600
G1 X94.64 Y91.10 E326.703 F3600
G1 X95.34 Y91.10 E326.804 F3600
G1 X108.90 Y104.66 E329.543 F3600
G1 X108.90 Y103.95 E329.644 F3600
G1 X96.05 Y91.10 E332.240 F3600
G1 X96.76 Y91.10 E332.341 F3600
G1 X108.90 Y103.24 E334.795 F3600
G1 X108.90 Y102.54 E334.896 F3600
G1 X97.46 Y91.10 E337.206 F3600
G1 X98.17 Y91.10 E337.307 F3600
G1 X108.90 Y101.83 E339.475 F3600
G1 X108.90 Y101.12 E339.576 F3600
G1 X98.88 Y91.10 E341.600 F3600
G1 X99.59 Y91.10 E341.701 F3600
G1 X108.90 Y100.41 E343.583 F3600
G1 X108.90 Y99.71 E343.684 F3600
G1 X100.29 Y91.10 E345.423 F3600
G1 X101.00 Y91.10 E345.524 F3600
G1 X108.90 Y99.00 E347.120 F3600
G1 X108.90 Y98.29 E347.221 F3600
G1 X101.71 Y91.10 E348.675 F3600
G1 X102.41 Y91.10 E348.776 F3600
G1 X108.90 Y97.59 E350.086 F3600
G1 X108.90 Y96.88 E350.187 F3600
G1 X103.12 Y91.10 E351.355 F3600
G1 X103.83 Y91.10 E351.456 F3600
G1 X108.90 Y96.17 E352.481 F3600
G1 X108.90 Y95.47 E352.582 F3600
G1 X104.53 Y91.10 E353.463 F3600
G1 X105.24 Y91.10 E353.564 F3600
G1 X108.90 Y94.76 E354.303 F3600
G1 X108.90 Y94.05 E354.405 F3600
G1 X105.95 Y91.10 E355.001 F3600
G1 X106.66 Y91.10 E355.101 F3600
G1 X108.90 Y93.34 E355.555 F3600
G1 X108.90 Y92.64 E355.656 F3600
G1 X107.36 Y91.10 E355.966 F3600
G1 X108.07 Y91.10 E356.067 F3600
G1 X108.90 Y91.93 E356.235 F3600
G1 X108.90 Y91.22 E356.336 F3600
G1 X108.78 Y91.10 E356.361 F3600
G1 E353.361 F1800
;LAYER:3
( Nozzle 0 )
G1 Z0.80 F300
G0 X109.25 Y90.75 F6000
G1 E356.361 F1800
G1 X109.25 Y109.25 E359.003 F3600
G1 X90.75 Y109.25 E361.646 F3600
G1 X90.75 Y90.75 E364.289 F3600
G1 X109.25 Y90.75 E366.932 F3600
G1 E363.932 F1800
G0 X109.75 Y90.25 F6000
G1 E366.932 F1800
G1 X109.75 Y109.75 E369.718 F3600
G1 X90.25 Y109.75 E372.503 F3600
G1 X90.25 Y90.25 E375.289 F3600
G1 X109.75 Y90.25 E378.075 F3600
G1 E375.075 F1800
G0 X104.19 Y91.10 F6000
G1 E378.075 F1800
G1 X91.10 Y104.19 E380.718 F3600
G1 X91.10 Y105.24 E380.869 F3600
G1 X94.76 Y108.90 E381.608 F3600
G1 X95.81 Y108.90 E381.759 F3600
G1 X108.90 Y95.81 E384.403 F3600
G1 X108.90 Y94.76 E384.554 F3600
G1 X105.24 Y91.10 E385.293 F3600
G1 E382.293 F1800
G0 X99.47 Y91.10 F6000
G1 E385.293 F1800
G1 X91.10 Y99.47 E386.984 F3600
G1 X91.10 Y100.53 E387.135 F3600
G1 X99.47 Y108.90 E388.826 F3600
G1 X100.53 Y108.90 E388.977 F3600
G1 X108.90 Y100.53 E390.669 F3600
G1 X108.90 Y99.47 E390.819 F3600
G1 X100.53 Y91.10 E392.511 F3600
G1 E389.511 F1800
G0 X94.76 Y91.10 F6000
G1 E392.511 F1800
G1 X91.10 Y94.76 E393.250 F3600
G1 X91.10 Y95.81 E393.401 F3600
G1 X104.19 Y108.90 E396.044 F3600
G1 X105.24 Y108.90 E396.195 F3600
G1 X108.90 Y105.24 E396.934 F3600
G1 X108.90 Y104.19 E397.085 F3600
G1 X95.81 Y91.10 E399.729 F3600
G1 E396.729 F1800
G0 X108.90 Y108.90 F6000
G1 E399.729 F1800
G1 X91.10 Y91.10 E403.325 F3600
G1 E400.325 F1800
G0 X91.10 Y108.90 F6000
G1 E403.325 F1800
G1 X108.90 Y91.10 E406.921 F3600
G1 E403.921 F1800
;LAYER:4
( Nozzle 0 )
G1 Z1.00 F300
G0 X90.75 Y90.75 F6000
G1 E406.921 F1800
G1 X109.25 Y90.75 E409.564 F3600
G1 X109.25 Y109.25 E412.207 F3600
G1 X90.75 Y109.25 E414.850 F3600
G1 X90.75 Y90.75 E417.492 F3600
G1 E414.492 F1800
G0 X90.25 Y90.25 F6000
G1 E417.492 F1800
G1 X109.75 Y90.25 E420.278 F3600
G1 X109.75 Y109.75 E423.064 F3600
G1 X90.25 Y109.75 E425.850 F3600
G1 X90.25 Y90.25 E428.635 F3600
G1 E425.635 F1800
G0 X91.10 Y104.19 F6000
G1 E428.635 F1800
G1 X104.19 Y91.10 E431.279 F3600
G1 X105.24 Y91.10 E431.430 F3600
G1 X108.90 Y94.76 E432.169 F3600
G1 X108.90 Y95.81 E432.320 F3600
G1 X95.81 Y108.90 E434.964 F3600
G1 X94.76 Y108.90 E435.114 F3600
G1 X91.10 Y105.24 E435.853 F3600
G1 E432.853 F1800
G0 X91.10 Y99.47 F6000
G1 E435.853 F1800
G1 X99.47 Y91.10 E437.545 F3600
G1 X100.53 Y91.10 E437.696 F3600
G1 X108.90 Y99.47 E439.387 F3600
G1 X108.90 Y100.53 E439.538 F3600
G1 X100.53 Y108.90 E441.229 F3600
G1 X99.47 Y108.90 E441.380 F3600
G1 X91.10 Y100.53 E443.071 F3600
G1 E440.071 F1800
G0 X91.10 Y94.76 F6000
G1 E443.071 F1800
G1 X94.76 Y91.10 E443.810 F3600
G1 X95.81 Y91.10 E443.961 F3600
G1 X108.90 Y104.19 E446.605 F3600
G1 X108.90 Y105.24 E446.756 F3600
G1 X105.24 Y108.90 E447.495 F3600
G1 X104.19 Y108.90 E447.646 F3600
G1 X91.10 Y95.81 E450.289 F3600
G1 E447.289 F1800
G0 X108.90 Y108.90 F6000
G1 E450.289 F1800
G1 X91.10 Y91.10 E453.885 F3600
G1 E450.885 F1800
G0 X91.10 Y108.90 F6000
G1 E453.885 F1800
G1 X108.90 Y91.10 E457.481 F3600
G1 E454.481 F1800
;LAYER:5
( Nozzle 0 )
G1 Z1.20 F300
G0 X109.25 Y109.25 F6000
G1 E457.481 F1800
G1 X90.75 Y109.25 E460.124 F3600
G1 X90.75 Y90.75 E462.767 F3600
G1 X109.25 Y90.75 E465.410 F3600
G1 X109.25 Y109.25 E468.053 F3600
G1 E465.053 F1800
G0 X109.75 Y109.75 F6000
G1 E468.053 F1800
G1 X90.25 Y109.75 E470.839 F3600
G1 X90.25 Y90.25 E473.624 F3600
G1 X109.75 Y90.25 E476.410 F3600
G1 X109.75 Y109.75 E479.196 F3600
G1 E476.196 F1800
G0 X104.19 Y91.10 F6000
G1 E479.196 F1800
G1 X91.10 Y104.19 E481.839 F3600
G1 X91.10 Y105.24 E481.990 F3600
G1 X94.76 Y108.90 E482.729 F3600
G1 X95.81 Y108.90 E482.880 F3600
G1 X108.90 Y95.81 E485.524 F3600
G1 X108.90 Y94.76 E485.675 F3600
G1 X105.24 Y91.10 E486.414 F3600
G1 E483.414 F1800
G0 X99.47 Y91.10 F6000
G1 E486.414 F1800
G1 X91.10 Y99.47 E488.105 F3600
G1 X91.10 Y100.53 E488.256 F3600
G1 X99.47 Y108.90 E489.947 F3600
G1 X100.53 Y108.90 E490.098 F3600
G1 X108.90 Y100.53 E491.790 F3600
G1 X108.90 Y99.47 E491.940 F3600
G1 X100.53 Y91.10 E493.632 F3600
G1 E490.632 F1800
G0 X94.76 Y91.10 F6000
G1 E493.632 F1800
G1 X91.10 Y94.76 E494.371 F3600
G1 X91.10 Y95.81 E494.522 F3600
G1 X104.19 Y108.90 E497.165 F3600
G1 X105.24 Y108.90 E497.316 F3600
G1 X108.90 Y105.24 E498.055 F3600
